X:1
T:[ID 2-107]
T:[ID 2-107]
T:Bezeichnung standardisiert: Tantz Tantz
T:Urheber unbekannt Datum in der hier transkribierten schriftlichen Quelle: 1767
C:Urheber unbekannt
C:Datum in der hier transkribierten schriftlichen Quelle: 1767
L:1/8
M:2/4
K:Bb
V:1 treble 
V:1
 b2 d'/b/b/a/ | bf f2 | g/f/e/d/ e/d/c/B/ | A/B/c/A/ F2 | (e/c/)(A/F/) E[CE] | [CE][B,D] [B,D]2 | %6
 (e/c/)(A/F/) [CE][CE] | [CE][B,D] [B,D]2 | [CE]2 [FA]2 | [DB]4 :: d/c/B/A/ db | c/B/A/B/ ca | %12
 gg/a/ b/a/g/f/ | ^e/f/g/e/ c2 | (b/g/)(e/c/) B[GB] | [GB][GB] [FA]2 | [GB]2 [ce]2 | %17
"^[sic]" f6!D.C.! || %18

